hoodie_driver/public/Tiktok.svg

<svg  viewBox="0 0 41 40" fill="#E0CC1B" xmlns="http://www.w3.org/2000/svg">
<path d="M32.7024 9.27031C32.4493 9.13949 32.2029 8.99608 31.9641 8.84062C31.2698 8.38161 30.6332 7.84074 30.068 7.22969C28.6539 5.61172 28.1258 3.97031 27.9313 2.82109H27.9391C27.7766 1.86719 27.8438 1.25 27.8539 1.25H21.4133V26.1547C21.4133 26.4891 21.4133 26.8195 21.3993 27.1461C21.3993 27.1867 21.3954 27.2242 21.393 27.268C21.393 27.2859 21.393 27.3047 21.3891 27.3234C21.3891 27.3281 21.3891 27.3328 21.3891 27.3375C21.3212 28.2311 21.0348 29.0943 20.555 29.8512C20.0752 30.6081 19.4167 31.2354 18.6375 31.6781C17.8255 32.1401 16.907 32.3825 15.9727 32.3812C12.9719 32.3812 10.5399 29.9344 10.5399 26.9125C10.5399 23.8906 12.9719 21.4437 15.9727 21.4437C16.5407 21.4432 17.1053 21.5326 17.6454 21.7086L17.6532 15.1508C16.0136 14.939 14.3479 15.0693 12.7613 15.5335C11.1746 15.9976 9.70132 16.7856 8.43441 17.8477C7.32431 18.8122 6.39104 19.963 5.6766 21.2484C5.40473 21.7172 4.37894 23.6008 4.25473 26.6578C4.1766 28.393 4.69769 30.1906 4.94613 30.9336V30.9492C5.10238 31.3867 5.70785 32.8797 6.69457 34.1383C7.49022 35.1479 8.43026 36.0347 9.48441 36.7703V36.7547L9.50004 36.7703C12.618 38.8891 16.075 38.75 16.075 38.75C16.6735 38.7258 18.6782 38.75 20.9547 37.6711C23.4797 36.475 24.9172 34.693 24.9172 34.693C25.8356 33.6282 26.5658 32.4147 27.0766 31.1047C27.6594 29.5727 27.8539 27.7352 27.8539 27.0008V13.7883C27.9321 13.8352 28.9727 14.5234 28.9727 14.5234C28.9727 14.5234 30.4719 15.4844 32.811 16.1102C34.4891 16.5555 36.75 16.6492 36.75 16.6492V10.2555C35.9578 10.3414 34.3493 10.0914 32.7024 9.27031Z" fill="#E0CC1B"/>
</svg>

<svg xmlns="http://www.w3.org/2000/svg" viewBox="0 0 41 40" fill="#E0CC1B" xmlns:v="https://vecta.io/nano"><path d="M32.702 9.27l-.738-.43c-.694-.459-1.331-1-1.896-1.611-1.414-1.618-1.942-3.259-2.137-4.409h.008c-.163-.954-.095-1.571-.085-1.571h-6.441v24.905l-.014.991c0 .041-.004.078-.006.122 0 .018 0 .037-.004.055a5.47 5.47 0 0 1-2.752 4.355c-.812.462-1.73.704-2.665.703-3.001 0-5.433-2.447-5.433-5.469s2.432-5.469 5.433-5.469c.568 0 1.133.089 1.673.265l.008-6.558c-1.64-.212-3.305-.082-4.892.383a11.96 11.96 0 0 0-4.327 2.314 12.64 12.64 0 0 0-2.758 3.401c-.272.469-1.298 2.352-1.422 5.409-.078 1.735.443 3.533.691 4.276v.016a12.59 12.59 0 0 0 1.748 3.189 13.09 13.09 0 0 0 2.79 2.632v-.016l.016.016c3.118 2.119 6.575 1.98 6.575 1.98.599-.024 2.603 0 4.88-1.079 2.525-1.196 3.963-2.978 3.963-2.978a12.38 12.38 0 0 0 2.159-3.588c.583-1.532.777-3.37.777-4.104V13.788l1.119.735s1.499.961 3.838 1.587c1.678.445 3.939.539 3.939.539v-6.394c-.792.086-2.401-.164-4.048-.985z"/></svg>
